X: 1359
T: Dr. Taylor
R:Reel
N:Collected by McFadden
B:O'Neill's 1359
Z:Transcribed by Trish O'Neil
M:C|
L:1/8
K:G
G2FG EGDF|G2Bd cBAF|G2FG EGDc|(3Bcd gB cBAF|
G2FG EGDF|G2Bd cBAF|GFGA (3Bcd ef|gdcA BG"H"G2||
gdBd edBd|cABG AGEG|T(gf)gd edBd|dedc BG Gz|
(3gfe fd edBd|(3cBA BG AGEG|(3DEF GA (3Bcd ef|(3gab af ge"D.C."dB|]


